content/blogs/regnskap/hva-er-moms-mva/mva-avstemming.svg

<svg xmlns="http://www.w3.org/2000/svg" viewBox="0 0 800 600"><defs><linearGradient id="a" x1="0%" x2="100%" y1="0%" y2="0%"><stop offset="0%" style="stop-color:#0284c7;stop-opacity:1"/><stop offset="100%" style="stop-color:#0369a1;stop-opacity:1"/></linearGradient><linearGradient id="b" x1="0%" x2="0%" y1="0%" y2="100%"><stop offset="0%" style="stop-color:#e0f2fe;stop-opacity:1"/><stop offset="100%" style="stop-color:#bae6fd;stop-opacity:1"/></linearGradient><linearGradient id="d" x1="0%" x2="0%" y1="0%" y2="100%"><stop offset="0%" style="stop-color:#dcfce7;stop-opacity:1"/><stop offset="100%" style="stop-color:#bbf7d0;stop-opacity:1"/></linearGradient><linearGradient id="c" x1="0%" x2="0%" y1="0%" y2="100%"><stop offset="0%" style="stop-color:#fef3c7;stop-opacity:1"/><stop offset="100%" style="stop-color:#fde68a;stop-opacity:1"/></linearGradient></defs><path fill="#f0f9ff" d="M0 0h800v600H0z"/><rect width="700" height="50" x="50" y="20" fill="url(#a)" rx="8"/><text x="400" y="50" fill="#fff" font-family="Arial, sans-serif" font-size="22" font-weight="bold" text-anchor="middle">MVA Avstemming Prosess</text><circle cx="400" cy="90" r="25" fill="#0284c7" stroke="#0369a1" stroke-width="2"/><text x="400" y="95" fill="#fff" font-family="Arial, sans-serif" font-size="12" font-weight="bold" text-anchor="middle">MÅNEDLIG</text><rect width="700" height="440" x="50" y="130" fill="#fff" stroke="#64748b" stroke-width="2" rx="10"/><rect width="300" height="100" x="80" y="160" fill="url(#b)" stroke="#0284c7" stroke-width="2" rx="8"/><circle cx="100" cy="180" r="12" fill="#0284c7"/><text x="100" y="185" fill="#fff" font-family="Arial, sans-serif" font-size="12" font-weight="bold" text-anchor="middle">1</text><text x="230" y="185" fill="#0c4a6e" font-family="Arial, sans-serif" font-size="16" font-weight="bold" text-anchor="middle">SAMMENLIGN</text><text x="120" y="205" fill="#075985" font-family="Arial, sans-serif" font-size="12">Bokført MVA mot MVA-melding</text><text x="120" y="220" fill="#075985" font-family="Arial, sans-serif" font-size="11">• Utgående MVA i regnskap</text><text x="120" y="235" fill="#075985" font-family="Arial, sans-serif" font-size="11">• Inngående MVA i regnskap</text><text x="120" y="250" fill="#075985" font-family="Arial, sans-serif" font-size="11">• Differanse beregning</text><path fill="none" stroke="#64748b" stroke-linecap="round" stroke-width="3" d="M390 210h20l-5-5m5 5-5 5"/><rect width="300" height="100" x="420" y="160" fill="url(#b)" stroke="#0284c7" stroke-width="2" rx="8"/><circle cx="440" cy="180" r="12" fill="#0284c7"/><text x="440" y="185" fill="#fff" font-family="Arial, sans-serif" font-size="12" font-weight="bold" text-anchor="middle">2</text><text x="570" y="185" fill="#0c4a6e" font-family="Arial, sans-serif" font-size="16" font-weight="bold" text-anchor="middle">KONTROLLER</text><text x="460" y="205" fill="#075985" font-family="Arial, sans-serif" font-size="12">Alle fakturaer er registrert</text><text x="460" y="220" fill="#075985" font-family="Arial, sans-serif" font-size="11">• Salgsfakturaer (utgående MVA)</text><text x="460" y="235" fill="#075985" font-family="Arial, sans-serif" font-size="11">• Innkjøpsfakturaer (inngående MVA)</text><text x="460" y="250" fill="#075985" font-family="Arial, sans-serif" font-size="11">• Korrekt MVA-sats anvendt</text><path fill="none" stroke="#64748b" stroke-linecap="round" stroke-width="3" d="M400 270v20l-5-5m5 5 5-5"/><rect width="300" height="100" x="80" y="300" fill="url(#b)" stroke="#0284c7" stroke-width="2" rx="8"/><circle cx="100" cy="320" r="12" fill="#0284c7"/><text x="100" y="325" fill="#fff" font-family="Arial, sans-serif" font-size="12" font-weight="bold" text-anchor="middle">3</text><text x="230" y="325" fill="#0c4a6e" font-family="Arial, sans-serif" font-size="16" font-weight="bold" text-anchor="middle">SJEKK FRADRAG</text><text x="120" y="345" fill="#075985" font-family="Arial, sans-serif" font-size="12">Fradragsberettigede kostnader</text><text x="120" y="360" fill="#075985" font-family="Arial, sans-serif" font-size="11">• Forretningsrelaterte innkjøp</text><text x="120" y="375" fill="#075985" font-family="Arial, sans-serif" font-size="11">• Dokumentasjon av formål</text><text x="120" y="390" fill="#075985" font-family="Arial, sans-serif" font-size="11">• Representasjon ekskludert</text><path fill="none" stroke="#64748b" stroke-linecap="round" stroke-width="3" d="M390 350h20l-5-5m5 5-5 5"/><rect width="300" height="100" x="420" y="300" fill="url(#c)" stroke="#f59e0b" stroke-width="2" rx="8"/><circle cx="440" cy="320" r="12" fill="#f59e0b"/><text x="440" y="325" fill="#fff" font-family="Arial, sans-serif" font-size="12" font-weight="bold" text-anchor="middle">4</text><text x="570" y="325" fill="#92400e" font-family="Arial, sans-serif" font-size="16" font-weight="bold" text-anchor="middle">KORRIGER FEIL</text><text x="460" y="345" fill="#a16207" font-family="Arial, sans-serif" font-size="12">Eventuelle feil før innlevering</text><text x="460" y="360" fill="#a16207" font-family="Arial, sans-serif" font-size="11">• Korrigerende posteringer</text><text x="460" y="375" fill="#a16207" font-family="Arial, sans-serif" font-size="11">• Oppdater MVA-melding</text><text x="460" y="390" fill="#a16207" font-family="Arial, sans-serif" font-size="11">• Dokumenter endringer</text><rect width="400" height="80" x="200" y="430" fill="url(#d)" stroke="#16a34a" stroke-width="2" rx="8"/><circle cx="400" cy="455" r="15" fill="#16a34a"/><path fill="none" stroke="#fff" stroke-linecap="round" stroke-width="3" d="m392 455 6 6 10-12"/><text x="400" y="485" fill="#166534" font-family="Arial, sans-serif" font-size="16" font-weight="bold" text-anchor="middle">AVSTEMMING FULLFØRT</text><text x="400" y="500" fill="#15803d" font-family="Arial, sans-serif" font-size="12" text-anchor="middle">Klar for innlevering av MVA-melding</text><rect width="200" height="200" x="50" y="130" fill="#f8fafc" stroke="#cbd5e1" rx="8"/><text x="150" y="155" fill="#1e293b" font-family="Arial, sans-serif" font-size="14" font-weight="bold" text-anchor="middle">AVSTEMMING SJEKKLISTE</text><rect width="15" height="15" x="70" y="170" fill="#16a34a" rx="2"/><path fill="none" stroke="#fff" stroke-linecap="round" stroke-width="2" d="m73 177 3 3 6-6"/><text x="95" y="182" fill="#475569" font-family="Arial, sans-serif" font-size="11">Hovedbok avstemt</text><rect width="15" height="15" x="70" y="195" fill="#16a34a" rx="2"/><path fill="none" stroke="#fff" stroke-linecap="round" stroke-width="2" d="m73 202 3 3 6-6"/><text x="95" y="207" fill="#475569" font-family="Arial, sans-serif" font-size="11">Fakturaer kontrollert</text><rect width="15" height="15" x="70" y="220" fill="#16a34a" rx="2"/><path fill="none" stroke="#fff" stroke-linecap="round" stroke-width="2" d="m73 227 3 3 6-6"/><text x="95" y="232" fill="#475569" font-family="Arial, sans-serif" font-size="11">Fradrag verifisert</text><rect width="15" height="15" x="70" y="245" fill="#16a34a" rx="2"/><path fill="none" stroke="#fff" stroke-linecap="round" stroke-width="2" d="m73 252 3 3 6-6"/><text x="95" y="257" fill="#475569" font-family="Arial, sans-serif" font-size="11">Satser korrekte</text><rect width="15" height="15" x="70" y="270" fill="#16a34a" rx="2"/><path fill="none" stroke="#fff" stroke-linecap="round" stroke-width="2" d="m73 277 3 3 6-6"/><text x="95" y="282" fill="#475569" font-family="Arial, sans-serif" font-size="11">Beregning riktig</text><rect width="15" height="15" x="70" y="295" fill="#f59e0b" rx="2"/><text x="77" y="305" fill="#fff" font-family="Arial, sans-serif" font-size="10" font-weight="bold" text-anchor="middle">!</text><text x="95" y="307" fill="#475569" font-family="Arial, sans-serif" font-size="11">Feil rettet</text><rect width="150" height="150" x="600" y="130" fill="#f1f5f9" stroke="#94a3b8" rx="8"/><text x="675" y="155" fill="#1e293b" font-family="Arial, sans-serif" font-size="14" font-weight="bold" text-anchor="middle">VERKTØY</text><rect width="30" height="35" x="640" y="170" fill="#3b82f6" stroke="#1d4ed8" rx="3"/><rect width="20" height="3" x="645" y="175" fill="#fff" rx="1"/><rect width="20" height="3" x="645" y="180" fill="#fff" rx="1"/><circle cx="648" cy="188" r="2" fill="#fff"/><circle cx="655" cy="188" r="2" fill="#fff"/><circle cx="662" cy="188" r="2" fill="#fff"/><text x="675" y="215" fill="#475569" font-family="Arial, sans-serif" font-size="10" text-anchor="middle">Kalkulator</text><rect width="25" height="30" x="640" y="225" fill="#10b981" stroke="#059669" rx="2"/><rect width="15" height="2" x="645" y="230" fill="#fff" rx="1"/><rect width="15" height="2" x="645" y="235" fill="#fff" rx="1"/><rect width="10" height="2" x="645" y="240" fill="#fff" rx="1"/><text x="675" y="270" fill="#475569" font-family="Arial, sans-serif" font-size="10" text-anchor="middle">Regnskapssystem</text><rect width="700" height="50" x="50" y="530" fill="#eff6ff" stroke="#3b82f6" rx="8"/><text x="400" y="550" fill="#1e40af" font-family="Arial, sans-serif" font-size="14" font-weight="bold" text-anchor="middle">💡 Tips: Utfør avstemming før hver MVA-melding innlevering</text><text x="400" y="570" fill="#1d4ed8" font-family="Arial, sans-serif" font-size="12" text-anchor="middle">Regelmessig avstemming reduserer risiko for feil og sanksjoner</text></svg>

<svg viewBox="0 0 800 600" xmlns="http://www.w3.org/2000/svg">
  <defs>
    <linearGradient id="headerGrad" x1="0%" y1="0%" x2="100%" y2="0%">
      <stop offset="0%" style="stop-color:#0284c7;stop-opacity:1" />
      <stop offset="100%" style="stop-color:#0369a1;stop-opacity:1" />
    </linearGradient>
    <linearGradient id="stepGrad" x1="0%" y1="0%" x2="0%" y2="100%">
      <stop offset="0%" style="stop-color:#e0f2fe;stop-opacity:1" />
      <stop offset="100%" style="stop-color:#bae6fd;stop-opacity:1" />
    </linearGradient>
    <linearGradient id="checkGrad" x1="0%" y1="0%" x2="0%" y2="100%">
      <stop offset="0%" style="stop-color:#dcfce7;stop-opacity:1" />
      <stop offset="100%" style="stop-color:#bbf7d0;stop-opacity:1" />
    </linearGradient>
    <linearGradient id="errorGrad" x1="0%" y1="0%" x2="0%" y2="100%">
      <stop offset="0%" style="stop-color:#fef3c7;stop-opacity:1" />
      <stop offset="100%" style="stop-color:#fde68a;stop-opacity:1" />
    </linearGradient>
  </defs>
  

  <rect width="800" height="600" fill="#f0f9ff"/>
  

  <rect x="50" y="20" width="700" height="50" rx="8" fill="url(#headerGrad)"/>
  <text x="400" y="50" text-anchor="middle" fill="white" font-family="Arial, sans-serif" font-size="22" font-weight="bold">MVA Avstemming Prosess</text>
  

  <circle cx="400" cy="90" r="25" fill="#0284c7" stroke="#0369a1" stroke-width="2"/>
  <text x="400" y="95" text-anchor="middle" fill="white" font-family="Arial, sans-serif" font-size="12" font-weight="bold">MÅNEDLIG</text>
  

  <rect x="50" y="130" width="700" height="440" rx="10" fill="white" stroke="#64748b" stroke-width="2"/>
  

  <rect x="80" y="160" width="300" height="100" rx="8" fill="url(#stepGrad)" stroke="#0284c7" stroke-width="2"/>
  <circle cx="100" cy="180" r="12" fill="#0284c7"/>
  <text x="100" y="185" text-anchor="middle" fill="white" font-family="Arial, sans-serif" font-size="12" font-weight="bold">1</text>
  <text x="230" y="185" text-anchor="middle" fill="#0c4a6e" font-family="Arial, sans-serif" font-size="16" font-weight="bold">SAMMENLIGN</text>
  <text x="120" y="205" fill="#075985" font-family="Arial, sans-serif" font-size="12">Bokført MVA mot MVA-melding</text>
  <text x="120" y="220" fill="#075985" font-family="Arial, sans-serif" font-size="11">• Utgående MVA i regnskap</text>
  <text x="120" y="235" fill="#075985" font-family="Arial, sans-serif" font-size="11">• Inngående MVA i regnskap</text>
  <text x="120" y="250" fill="#075985" font-family="Arial, sans-serif" font-size="11">• Differanse beregning</text>
  

  <path d="M390 210 L410 210 L405 205 M410 210 L405 215" stroke="#64748b" stroke-width="3" fill="none" stroke-linecap="round"/>
  

  <rect x="420" y="160" width="300" height="100" rx="8" fill="url(#stepGrad)" stroke="#0284c7" stroke-width="2"/>
  <circle cx="440" cy="180" r="12" fill="#0284c7"/>
  <text x="440" y="185" text-anchor="middle" fill="white" font-family="Arial, sans-serif" font-size="12" font-weight="bold">2</text>
  <text x="570" y="185" text-anchor="middle" fill="#0c4a6e" font-family="Arial, sans-serif" font-size="16" font-weight="bold">KONTROLLER</text>
  <text x="460" y="205" fill="#075985" font-family="Arial, sans-serif" font-size="12">Alle fakturaer er registrert</text>
  <text x="460" y="220" fill="#075985" font-family="Arial, sans-serif" font-size="11">• Salgsfakturaer (utgående MVA)</text>
  <text x="460" y="235" fill="#075985" font-family="Arial, sans-serif" font-size="11">• Innkjøpsfakturaer (inngående MVA)</text>
  <text x="460" y="250" fill="#075985" font-family="Arial, sans-serif" font-size="11">• Korrekt MVA-sats anvendt</text>
  

  <path d="M400 270 L400 290 L395 285 M400 290 L405 285" stroke="#64748b" stroke-width="3" fill="none" stroke-linecap="round"/>
  

  <rect x="80" y="300" width="300" height="100" rx="8" fill="url(#stepGrad)" stroke="#0284c7" stroke-width="2"/>
  <circle cx="100" cy="320" r="12" fill="#0284c7"/>
  <text x="100" y="325" text-anchor="middle" fill="white" font-family="Arial, sans-serif" font-size="12" font-weight="bold">3</text>
  <text x="230" y="325" text-anchor="middle" fill="#0c4a6e" font-family="Arial, sans-serif" font-size="16" font-weight="bold">SJEKK FRADRAG</text>
  <text x="120" y="345" fill="#075985" font-family="Arial, sans-serif" font-size="12">Fradragsberettigede kostnader</text>
  <text x="120" y="360" fill="#075985" font-family="Arial, sans-serif" font-size="11">• Forretningsrelaterte innkjøp</text>
  <text x="120" y="375" fill="#075985" font-family="Arial, sans-serif" font-size="11">• Dokumentasjon av formål</text>
  <text x="120" y="390" fill="#075985" font-family="Arial, sans-serif" font-size="11">• Representasjon ekskludert</text>
  

  <path d="M390 350 L410 350 L405 345 M410 350 L405 355" stroke="#64748b" stroke-width="3" fill="none" stroke-linecap="round"/>
  

  <rect x="420" y="300" width="300" height="100" rx="8" fill="url(#errorGrad)" stroke="#f59e0b" stroke-width="2"/>
  <circle cx="440" cy="320" r="12" fill="#f59e0b"/>
  <text x="440" y="325" text-anchor="middle" fill="white" font-family="Arial, sans-serif" font-size="12" font-weight="bold">4</text>
  <text x="570" y="325" text-anchor="middle" fill="#92400e" font-family="Arial, sans-serif" font-size="16" font-weight="bold">KORRIGER FEIL</text>
  <text x="460" y="345" fill="#a16207" font-family="Arial, sans-serif" font-size="12">Eventuelle feil før innlevering</text>
  <text x="460" y="360" fill="#a16207" font-family="Arial, sans-serif" font-size="11">• Korrigerende posteringer</text>
  <text x="460" y="375" fill="#a16207" font-family="Arial, sans-serif" font-size="11">• Oppdater MVA-melding</text>
  <text x="460" y="390" fill="#a16207" font-family="Arial, sans-serif" font-size="11">• Dokumenter endringer</text>
  

  <rect x="200" y="430" width="400" height="80" rx="8" fill="url(#checkGrad)" stroke="#16a34a" stroke-width="2"/>
  <circle cx="400" cy="455" r="15" fill="#16a34a"/>
  <path d="M392 455 L398 461 L408 449" stroke="white" stroke-width="3" fill="none" stroke-linecap="round"/>
  <text x="400" y="485" text-anchor="middle" fill="#166534" font-family="Arial, sans-serif" font-size="16" font-weight="bold">AVSTEMMING FULLFØRT</text>
  <text x="400" y="500" text-anchor="middle" fill="#15803d" font-family="Arial, sans-serif" font-size="12">Klar for innlevering av MVA-melding</text>
  

  <rect x="50" y="130" width="200" height="200" rx="8" fill="#f8fafc" stroke="#cbd5e1" stroke-width="1"/>
  <text x="150" y="155" text-anchor="middle" fill="#1e293b" font-family="Arial, sans-serif" font-size="14" font-weight="bold">AVSTEMMING SJEKKLISTE</text>
  

  <rect x="70" y="170" width="15" height="15" rx="2" fill="#16a34a"/>
  <path d="M73 177 L76 180 L82 174" stroke="white" stroke-width="2" fill="none" stroke-linecap="round"/>
  <text x="95" y="182" fill="#475569" font-family="Arial, sans-serif" font-size="11">Hovedbok avstemt</text>
  
  <rect x="70" y="195" width="15" height="15" rx="2" fill="#16a34a"/>
  <path d="M73 202 L76 205 L82 199" stroke="white" stroke-width="2" fill="none" stroke-linecap="round"/>
  <text x="95" y="207" fill="#475569" font-family="Arial, sans-serif" font-size="11">Fakturaer kontrollert</text>
  
  <rect x="70" y="220" width="15" height="15" rx="2" fill="#16a34a"/>
  <path d="M73 227 L76 230 L82 224" stroke="white" stroke-width="2" fill="none" stroke-linecap="round"/>
  <text x="95" y="232" fill="#475569" font-family="Arial, sans-serif" font-size="11">Fradrag verifisert</text>
  
  <rect x="70" y="245" width="15" height="15" rx="2" fill="#16a34a"/>
  <path d="M73 252 L76 255 L82 249" stroke="white" stroke-width="2" fill="none" stroke-linecap="round"/>
  <text x="95" y="257" fill="#475569" font-family="Arial, sans-serif" font-size="11">Satser korrekte</text>
  
  <rect x="70" y="270" width="15" height="15" rx="2" fill="#16a34a"/>
  <path d="M73 277 L76 280 L82 274" stroke="white" stroke-width="2" fill="none" stroke-linecap="round"/>
  <text x="95" y="282" fill="#475569" font-family="Arial, sans-serif" font-size="11">Beregning riktig</text>
  
  <rect x="70" y="295" width="15" height="15" rx="2" fill="#f59e0b"/>
  <text x="77" y="305" text-anchor="middle" fill="white" font-family="Arial, sans-serif" font-size="10" font-weight="bold">!</text>
  <text x="95" y="307" fill="#475569" font-family="Arial, sans-serif" font-size="11">Feil rettet</text>
  

  <rect x="600" y="130" width="150" height="150" rx="8" fill="#f1f5f9" stroke="#94a3b8" stroke-width="1"/>
  <text x="675" y="155" text-anchor="middle" fill="#1e293b" font-family="Arial, sans-serif" font-size="14" font-weight="bold">VERKTØY</text>
  

  <rect x="640" y="170" width="30" height="35" rx="3" fill="#3b82f6" stroke="#1d4ed8" stroke-width="1"/>
  <rect x="645" y="175" width="20" height="3" rx="1" fill="white"/>
  <rect x="645" y="180" width="20" height="3" rx="1" fill="white"/>
  <circle cx="648" cy="188" r="2" fill="white"/>
  <circle cx="655" cy="188" r="2" fill="white"/>
  <circle cx="662" cy="188" r="2" fill="white"/>
  <text x="675" y="215" text-anchor="middle" fill="#475569" font-family="Arial, sans-serif" font-size="10">Kalkulator</text>
  

  <rect x="640" y="225" width="25" height="30" rx="2" fill="#10b981" stroke="#059669" stroke-width="1"/>
  <rect x="645" y="230" width="15" height="2" rx="1" fill="white"/>
  <rect x="645" y="235" width="15" height="2" rx="1" fill="white"/>
  <rect x="645" y="240" width="10" height="2" rx="1" fill="white"/>
  <text x="675" y="270" text-anchor="middle" fill="#475569" font-family="Arial, sans-serif" font-size="10">Regnskapssystem</text>
  

  <rect x="50" y="530" width="700" height="50" rx="8" fill="#eff6ff" stroke="#3b82f6" stroke-width="1"/>
  <text x="400" y="550" text-anchor="middle" fill="#1e40af" font-family="Arial, sans-serif" font-size="14" font-weight="bold">💡 Tips: Utfør avstemming før hver MVA-melding innlevering</text>
  <text x="400" y="570" text-anchor="middle" fill="#1d4ed8" font-family="Arial, sans-serif" font-size="12">Regelmessig avstemming reduserer risiko for feil og sanksjoner</text>
</svg>
